remix/Device/signal-wifi-off-line.svg

<svg viewBox="0 0 24 24" fill="currentColor" xmlns="http://www.w3.org/2000/svg"><path d="M2.80815 1.39343L20.4858 19.0711L19.0716 20.4853L15.3889 16.8034L12.0005 21L0.689941 6.99674C1.60407 6.25747 2.59204 5.60589 3.64107 5.05479L1.39394 2.80765L2.80815 1.39343ZM3.57997 7.39183L12.0005 17.817L13.9669 15.3804L5.13163 6.54439C4.59981 6.79756 4.08187 7.0804 3.57997 7.39183ZM12.0005 3.00003C16.2849 3.00003 20.2196 4.49687 23.3104 6.99611L17.9039 13.689L16.4819 12.267L20.4204 7.39135C17.9226 5.84171 15.0278 5.00003 12.0005 5.00003C11.1277 5.00003 10.2659 5.07 9.42141 5.20674L7.72504 3.51088C9.09547 3.17702 10.5273 3.00003 12.0005 3.00003Z"/></svg>

<svg viewBox="0 0 24 24" xmlns="http://www.w3.org/2000/svg"><path fill="none" d="M0 0h24v24H0Z"/><path d="M2.8 1.39l17.677 17.678 -1.42 1.41 -3.69-3.69 -3.39 4.19L.66 6.97c.91-.74 1.9-1.4 2.95-1.95L1.36 2.77 2.78 1.36Zm.77 5.99l8.42 10.42 1.96-2.44L5.11 6.52c-.532.25-1.05.53-1.56.84Zm8.42-4.392c4.28 0 8.22 1.49 11.31 3.99l-5.41 6.693 -1.43-1.43 3.939-4.88c-2.5-1.55-5.4-2.4-8.42-2.4 -.88 0-1.74.07-2.58.2L7.69 3.46c1.36-.34 2.8-.51 4.275-.51Z"/></svg>
